docs/images/reason/camel-text.svg

<svg width="287" height="139" viewBox="0 0 287 139" fill="none" xmlns="http://www.w3.org/2000/svg">
<path d="M80.1853 57.5778V11.076H95.0715V45.6751H109.958V57.5778H80.1853ZM117.315 53.907C120.47 57.0624 125.5 58.6869 132.248 58.6869C138.996 58.6869 144.213 57.078 147.306 53.7821C150.399 50.5643 151.961 45.597 151.961 38.9584C151.961 32.3197 150.414 27.3681 147.306 24.0722C144.213 20.8544 139.183 19.2299 132.248 19.2299C125.312 19.2299 120.283 20.8388 117.19 24.0722C114.097 27.3525 112.535 32.3197 112.535 38.9584C112.535 45.597 114.144 50.7361 117.315 53.8914V53.907ZM129.78 30.664C130.592 30.2891 131.889 30.1016 133.685 30.1016H135.981V44.6754C135.981 46.0344 135.606 46.9091 134.81 47.284C134.013 47.6589 132.638 47.8464 130.842 47.8464H128.546V33.2726C128.546 31.9136 128.983 31.0389 129.78 30.664ZM162.676 57.5778L155.241 20.3858H169.815L172.845 42.4573H173.657L178.375 20.3858H189.528L193.683 42.4573H194.495L198.088 20.3858H212.661L205.226 57.5778H186.935L184.014 41.5826H183.451L180.234 57.5778H162.676Z" fill="#323E48"/>
<path d="M16.2356 126.432H0.552734L12.5804 79.9306H35.5736L47.6012 126.432H31.9184L30.1845 119.06H17.9069L16.2356 126.432ZM23.6709 94.1919L20.6405 107.204H27.4666L24.4831 94.1919H23.6709ZM50.4441 119.434C50.4441 121.293 50.8815 122.715 51.8031 123.714C52.6778 124.714 53.9743 125.511 55.7082 126.136C57.7545 126.885 61.9719 127.245 68.2982 127.245L68.9855 116.326C68.5481 116.263 68.0483 116.201 67.4391 116.139C66.8299 116.076 66.1426 115.951 65.3303 115.764V76.9471L50.4441 78.0561V119.434ZM73.4373 119.434C73.4373 121.293 73.8747 122.715 74.7963 123.714C75.671 124.714 76.9675 125.511 78.7013 126.136C80.7476 126.885 84.9651 127.245 91.2913 127.245L91.9786 116.326C91.5413 116.263 91.0414 116.201 90.4322 116.139C89.823 116.076 89.1357 115.951 88.3235 115.764V76.9471L73.4373 78.0561V119.434ZM121.407 113.046C124.203 112.608 126.484 111.874 128.171 110.874C129.858 109.875 131.092 108.578 131.826 107.032C132.513 105.485 132.873 103.689 132.873 101.518C132.873 98.9093 132.56 96.738 131.998 95.0042C131.373 93.3328 130.389 91.9738 128.968 90.9117C127.546 89.912 125.625 89.1778 123.329 88.7404C121.032 88.3031 118.127 88.1156 114.644 88.1156C107.755 88.1156 102.741 89.7245 99.6482 92.9579C96.4929 96.2382 94.9309 101.205 94.9309 107.844C94.9309 114.483 96.4773 119.434 99.5858 122.668C102.679 125.948 107.708 127.573 114.644 127.573C120.033 127.573 125.562 126.823 131.139 125.339L129.405 114.42C124.688 115.904 120.048 116.654 115.394 116.654C114.644 116.654 113.91 116.654 113.16 116.592L110.926 116.404V113.795C115.081 113.795 118.611 113.546 121.407 113.046ZM112.176 99.5341C112.988 99.1592 114.285 98.9718 116.081 98.9718H119.111V102.002C119.111 103.361 118.736 104.236 117.94 104.611C117.143 104.986 115.768 105.173 113.972 105.173H110.942V102.143C110.942 100.784 111.379 99.909 112.176 99.5341ZM153.335 126.432V105.173C153.71 104.736 154.273 104.298 154.944 103.939C155.632 103.627 156.428 103.314 157.303 103.064C158.115 102.814 158.974 102.627 159.787 102.439C160.599 102.252 161.333 102.19 161.895 102.19L161.021 88.1156C156.616 88.9279 152.96 90.6617 149.993 93.3797L145.9 89.2247H138.465V126.417H153.351L153.335 126.432ZM180.405 138.71C182.827 138.71 185.31 138.647 187.716 138.46C190.121 138.273 192.308 137.835 194.229 137.039C196.151 136.242 197.697 135.055 198.884 133.383C200.071 131.712 200.681 129.416 200.681 126.432C200.681 124.636 200.431 123.215 199.931 122.027C199.369 120.856 198.572 119.919 197.385 119.169C196.198 118.419 194.714 117.872 192.855 117.497C190.996 117.185 188.7 116.935 186.029 116.748L186.341 114.951C188.887 114.764 190.996 114.327 192.667 113.78C194.339 113.218 195.76 112.483 196.822 111.484C197.885 110.484 198.619 109.25 199.056 107.828C199.494 106.407 199.743 104.673 199.743 102.752C199.743 99.9558 199.431 97.7378 198.744 96.0508L203.024 91.0835L195.214 83.5857L188.7 88.553C187.763 88.3655 186.779 88.2406 185.716 88.1781C184.654 88.1156 183.545 88.1156 182.374 88.1156C175.797 88.1156 171.033 89.2247 168.112 91.3959C165.191 93.5671 163.707 96.8474 163.707 101.127C163.707 105.407 164.645 108.625 166.503 110.671C168.362 112.718 171.096 114.077 174.626 114.764L172.392 121.153C172.392 121.59 172.455 121.965 172.517 122.152C172.58 122.402 172.892 122.715 173.329 123.09C173.704 123.464 174.563 123.839 176.001 124.199C176.688 124.386 177.734 124.574 179.156 124.636C180.577 124.761 182.374 124.823 184.607 124.823V127.432C184.295 127.495 183.795 127.495 183.248 127.495C182.624 127.557 181.889 127.557 181.077 127.557C175.438 127.557 170.533 126.807 166.253 125.386L164.332 136.476C170.096 137.96 175.485 138.71 180.39 138.71H180.405ZM178.984 98.5969C179.796 98.222 181.03 98.0345 182.827 98.0345H185.185V102.877C185.185 104.173 184.748 105.048 183.951 105.423C183.155 105.798 181.843 105.985 180.046 105.985H177.75V101.143C177.75 99.8465 178.187 98.9718 178.984 98.5969ZM231.172 113.046C233.968 112.608 236.248 111.874 237.935 110.874C239.622 109.875 240.856 108.578 241.59 107.032C242.278 105.485 242.637 103.689 242.637 101.518C242.637 98.9093 242.325 96.738 241.762 95.0042C241.137 93.3328 240.153 91.9738 238.732 90.9117C237.31 89.912 235.389 89.1778 233.093 88.7404C230.797 88.3031 227.891 88.1156 224.408 88.1156C217.519 88.1156 212.505 89.7245 209.412 92.9579C206.257 96.2382 204.695 101.205 204.695 107.844C204.695 114.483 206.242 119.434 209.35 122.668C212.443 125.948 217.473 127.573 224.408 127.573C229.797 127.573 235.327 126.823 240.903 125.339L239.169 114.42C234.452 115.904 229.813 116.654 225.158 116.654C224.408 116.654 223.674 116.654 222.924 116.592L220.69 116.404V113.795C224.845 113.795 228.376 113.546 231.172 113.046ZM221.94 99.5341C222.752 99.1592 224.049 98.9718 225.845 98.9718H228.875V102.002C228.875 103.361 228.5 104.236 227.704 104.611C226.907 104.986 225.533 105.173 223.736 105.173H220.706V102.143C220.706 100.784 221.143 99.909 221.94 99.5341ZM248.213 126.432H263.1V103.252C263.1 102.08 263.537 101.268 264.396 100.893C265.271 100.581 266.567 100.393 268.239 100.393H270.535V126.432H285.421V96.6756C285.421 94.0045 284.421 91.8957 282.5 90.3493C280.516 88.8654 277.783 88.1156 274.253 88.1156C268.926 88.1156 263.959 89.7245 259.366 92.9579L255.649 89.2403H248.213V126.432Z" fill="#323E48"/>
<g clip-path="url(#clip0_778_7848)">
<path d="M45.6452 48.2549L24.7606 45.7936L25.179 42.2246L41.6209 44.1568L31.837 34.3729V34.4344L10.94 31.973L11.3585 28.4041L27.8004 30.3362L10.6693 13.8574L13.2045 11.3222L29.5602 27.0257L27.7881 11.9745L31.357 11.556L33.6584 31.1239L43.3808 40.8462L41.6086 25.795L45.1776 25.3766L47.4789 44.9444L56.7213 54.1868C67.859 18.7063 38.6796 -9.53783 3.03907 3.03973C-9.55079 38.7787 18.7918 67.8351 54.1861 56.722L45.6575 48.1934V48.2549H45.6452Z" fill="#323E48"/>
</g>
<g clip-path="url(#clip1_778_7848)">
<path d="M241.226 48.2549L262.111 45.7936L261.692 42.2246L245.25 44.1568L255.034 34.3729V34.4344L275.931 31.973L275.513 28.4041L259.071 30.3362L276.202 13.8574L273.667 11.3222L257.311 27.0257L259.083 11.9745L255.514 11.556L253.213 31.1239L243.49 40.8462L245.263 25.795L241.694 25.3766L239.392 44.9444L230.15 54.1868C219.012 18.7063 248.192 -9.53783 283.832 3.03973C296.422 38.7787 268.079 67.8351 232.685 56.722L241.214 48.1934V48.2549H241.226Z" fill="#323E48"/>
</g>
<defs>
<clipPath id="clip0_778_7848">
<rect width="59.1342" height="59.1342" fill="white"/>
</clipPath>
<clipPath id="clip1_778_7848">
<rect width="59.1342" height="59.1342" fill="white" transform="matrix(-1 0 0 1 286.871 0)"/>
</clipPath>
</defs>
</svg>

<svg xmlns="http://www.w3.org/2000/svg" width="287" height="139" fill="none"><path fill="#323E48" d="M80.185 57.578V11.076h14.886v34.6h14.887v11.902zm37.13-3.671c3.155 3.155 8.185 4.78 14.933 4.78s11.965-1.609 15.058-4.905c3.093-3.218 4.655-8.185 4.655-14.824s-1.547-11.59-4.655-14.886c-3.093-3.218-8.123-4.842-15.058-4.842s-11.965 1.609-15.058 4.842c-3.093 3.28-4.655 8.248-4.655 14.886 0 6.639 1.609 11.778 4.78 14.933zm12.465-23.243c.812-.375 2.109-.562 3.905-.562h2.296v14.573c0 1.36-.375 2.234-1.171 2.609-.797.375-2.172.562-3.968.562h-2.296V33.273c0-1.36.437-2.234 1.234-2.609m32.896 26.914-7.435-37.192h14.574l3.03 22.071h.812l4.718-22.071h11.153l4.155 22.071h.812l3.593-22.071h14.573l-7.435 37.192h-18.291l-2.921-15.995h-.563l-3.217 15.995zm-146.44 68.854H.553L12.58 79.931h22.994L47.6 126.432H31.918l-1.733-7.372H17.907zm7.435-32.24-3.03 13.012h6.826l-2.984-13.012zm26.773 25.242c0 1.859.438 3.281 1.36 4.28.874 1 2.17 1.797 3.904 2.422 2.047.749 6.264 1.109 12.59 1.109l.688-10.919a37 37 0 0 0-1.547-.187 18 18 0 0 1-2.109-.375V76.947l-14.886 1.11zm22.993 0c0 1.859.438 3.281 1.36 4.28.874 1 2.17 1.797 3.904 2.422 2.047.749 6.264 1.109 12.59 1.109l.688-10.919a37 37 0 0 0-1.547-.187 18 18 0 0 1-2.109-.375V76.947l-14.886 1.11zm47.97-6.388c2.796-.438 5.077-1.172 6.764-2.172 1.687-.999 2.921-2.296 3.655-3.842.687-1.547 1.047-3.343 1.047-5.514 0-2.609-.313-4.78-.875-6.514-.625-1.671-1.609-3.03-3.03-4.092-1.422-1-3.343-1.734-5.639-2.172-2.297-.437-5.202-.624-8.685-.624-6.889 0-11.903 1.609-14.996 4.842-3.155 3.28-4.717 8.247-4.717 14.886s1.546 11.59 4.655 14.824c3.093 3.28 8.122 4.905 15.058 4.905 5.389 0 10.918-.75 16.495-2.234l-1.734-10.919c-4.717 1.484-9.357 2.234-14.011 2.234-.75 0-1.484 0-2.234-.062l-2.234-.188v-2.609c4.155 0 7.685-.249 10.481-.749m-9.231-13.512c.812-.375 2.109-.562 3.905-.562h3.03v3.03c0 1.359-.375 2.234-1.171 2.609-.797.375-2.172.562-3.968.562h-3.03v-3.03c0-1.359.437-2.234 1.234-2.609m41.159 26.898v-21.259c.375-.437.938-.875 1.609-1.234a17 17 0 0 1 2.359-.875c.812-.25 1.671-.437 2.484-.625a9.6 9.6 0 0 1 2.108-.249l-.874-14.074c-4.405.812-8.061 2.546-11.028 5.264l-4.093-4.155h-7.435v37.192h14.886zm27.07 12.278c2.422 0 4.905-.063 7.311-.25s4.592-.625 6.513-1.421c1.922-.797 3.468-1.984 4.655-3.656 1.187-1.671 1.797-3.967 1.797-6.951 0-1.796-.25-3.217-.75-4.405a6.7 6.7 0 0 0-2.546-2.858c-1.187-.75-2.671-1.297-4.53-1.672-1.859-.312-4.155-.562-6.826-.749l.312-1.797c2.546-.187 4.655-.624 6.326-1.171 1.672-.562 3.093-1.297 4.155-2.296 1.063-1 1.797-2.234 2.234-3.656.438-1.421.687-3.155.687-5.076 0-2.796-.312-5.014-.999-6.701l4.28-4.968-7.81-7.497-6.514 4.967a22 22 0 0 0-2.984-.375c-1.062-.062-2.171-.062-3.342-.062-6.577 0-11.341 1.109-14.262 3.28s-4.405 5.451-4.405 9.731.938 7.498 2.796 9.544c1.859 2.047 4.593 3.406 8.123 4.093l-2.234 6.389c0 .437.063.812.125.999.063.25.375.563.812.938.375.374 1.234.749 2.672 1.109.687.187 1.733.375 3.155.437 1.421.125 3.218.187 5.451.187v2.609c-.312.063-.812.063-1.359.063-.624.062-1.359.062-2.171.062-5.639 0-10.544-.75-14.824-2.171l-1.921 11.09c5.764 1.484 11.153 2.234 16.058 2.234zm-1.421-40.113c.812-.375 2.046-.562 3.843-.562h2.358v4.842c0 1.296-.437 2.171-1.234 2.546s-2.108.562-3.905.562h-2.296v-4.842c0-1.296.437-2.171 1.234-2.546m52.188 14.449c2.796-.438 5.076-1.172 6.763-2.172 1.687-.999 2.921-2.296 3.655-3.842.688-1.547 1.047-3.343 1.047-5.514 0-2.609-.312-4.78-.875-6.514-.625-1.671-1.609-3.03-3.03-4.092-1.422-1-3.343-1.734-5.639-2.172-2.296-.437-5.202-.624-8.685-.624-6.889 0-11.903 1.609-14.996 4.842-3.155 3.28-4.717 8.247-4.717 14.886s1.547 11.59 4.655 14.824c3.093 3.28 8.123 4.905 15.058 4.905 5.389 0 10.919-.75 16.495-2.234l-1.734-10.919c-4.717 1.484-9.356 2.234-14.011 2.234-.75 0-1.484 0-2.234-.062l-2.234-.188v-2.609c4.155 0 7.686-.249 10.482-.749m-9.232-13.512c.812-.375 2.109-.562 3.905-.562h3.03v3.03c0 1.359-.375 2.234-1.171 2.609-.797.375-2.171.562-3.968.562h-3.03v-3.03c0-1.359.437-2.234 1.234-2.609m26.273 26.898H263.1v-23.18c0-1.172.437-1.984 1.296-2.359.875-.312 2.171-.5 3.843-.5h2.296v26.039h14.886V96.676c0-2.672-1-4.78-2.921-6.327-1.984-1.484-4.717-2.233-8.247-2.233-5.327 0-10.294 1.609-14.887 4.842l-3.717-3.718h-7.436z"/><g clip-path="url(#a)"><path fill="#323E48" d="m45.645 48.255-20.884-2.461.418-3.57 16.442 1.933-9.784-9.784v.061L10.94 31.973l.418-3.569L27.8 30.336 10.67 13.857l2.534-2.535L29.56 27.026l-1.772-15.051 3.569-.419 2.301 19.568 9.723 9.722-1.772-15.051 3.569-.418 2.3 19.567 9.243 9.243C67.86 18.707 38.68-9.538 3.04 3.04-9.55 38.779 18.792 67.835 54.186 56.722l-8.529-8.529v.062z"/></g><g clip-path="url(#b)"><path fill="#323E48" d="m241.226 48.255 20.885-2.461-.419-3.57-16.442 1.933 9.784-9.784v.061l20.897-2.461-.418-3.569-16.442 1.932 17.131-16.479-2.535-2.535-16.356 15.704 1.772-15.051-3.569-.419-2.301 19.568-9.723 9.722 1.773-15.051-3.569-.418-2.302 19.567-9.242 9.243c-11.138-35.48 18.042-63.725 53.682-51.147 12.59 35.739-15.753 64.795-51.147 53.682l8.529-8.529v.062z"/></g><defs><clipPath id="a"><path fill="#fff" d="M0 0h59.134v59.134H0z"/></clipPath><clipPath id="b"><path fill="#fff" d="M286.871 0h-59.134v59.134h59.134z"/></clipPath></defs></svg>
